packages/core/src/svgs/oxb.svg

<svg width="24" height="24" viewBox="0 0 24 24" fill="none" xmlns="http://www.w3.org/2000/svg">
<g clip-path="url(#clip0_31_15664)">
<path d="M0 0H24V24H0V0Z" fill="url(#paint0_linear_31_15664)"/>
<path d="M4.71418 10.2855H6.85704C7.08437 10.2855 7.30238 10.3758 7.46313 10.5366C7.62387 10.6973 7.71418 10.9153 7.71418 11.1426V11.5712C7.71418 11.6281 7.73676 11.6826 7.77694 11.7227C7.81713 11.7629 7.87163 11.7855 7.92847 11.7855C7.9853 11.7855 8.0398 11.7629 8.07999 11.7227C8.12018 11.6826 8.14275 11.6281 8.14275 11.5712V11.1426C8.14275 10.8017 8.00729 10.4746 7.76618 10.2335C7.52506 9.99239 7.19803 9.85693 6.85704 9.85693H4.71418C4.37319 9.85693 4.04616 9.99239 3.80504 10.2335C3.56393 10.4746 3.42847 10.8017 3.42847 11.1426V11.5712C3.42847 11.6281 3.45104 11.6826 3.49123 11.7227C3.53142 11.7629 3.58592 11.7855 3.64275 11.7855C3.69958 11.7855 3.75409 11.7629 3.79428 11.7227C3.83446 11.6826 3.85704 11.6281 3.85704 11.5712V11.1426C3.85704 10.6712 4.24275 10.2855 4.71418 10.2855ZM3.85704 12.4284C3.85704 12.3715 3.83446 12.317 3.79428 12.2768C3.75409 12.2367 3.69958 12.2141 3.64275 12.2141C3.58592 12.2141 3.53142 12.2367 3.49123 12.2768C3.45104 12.317 3.42847 12.3715 3.42847 12.4284V12.8569C3.42847 13.1979 3.56393 13.525 3.80504 13.7661C4.04616 14.0072 4.37319 14.1426 4.71418 14.1426H6.85704C7.19803 14.1426 7.52506 14.0072 7.76618 13.7661C8.00729 13.525 8.14275 13.1979 8.14275 12.8569V12.4284C8.14275 12.3715 8.12018 12.317 8.07999 12.2768C8.0398 12.2367 7.9853 12.2141 7.92847 12.2141C7.87163 12.2141 7.81713 12.2367 7.77694 12.2768C7.73676 12.317 7.71418 12.3715 7.71418 12.4284V12.8569C7.71418 13.0843 7.62387 13.3023 7.46313 13.463C7.30238 13.6238 7.08437 13.7141 6.85704 13.7141H4.71418C4.48685 13.7141 4.26884 13.6238 4.10809 13.463C3.94734 13.3023 3.85704 13.0843 3.85704 12.8569V12.4284ZM9.48418 9.92979C9.52194 9.88816 9.57456 9.86303 9.63067 9.85982C9.68679 9.85662 9.74192 9.87559 9.78418 9.91265L11.927 11.8412C11.9491 11.8613 11.9668 11.8858 11.9789 11.9131C11.991 11.9404 11.9972 11.9699 11.9972 11.9998C11.9972 12.0297 11.991 12.0592 11.9789 12.0865C11.9668 12.1138 11.9491 12.1383 11.927 12.1584L9.78418 14.0869C9.7412 14.1162 9.68902 14.1289 9.63739 14.1226C9.58575 14.1162 9.53819 14.0913 9.50356 14.0525C9.46893 14.0137 9.44961 13.9636 9.4492 13.9116C9.44879 13.8596 9.46732 13.8092 9.50132 13.7698L11.4642 11.9998L9.50132 10.2298C9.45969 10.192 9.43456 10.1394 9.43136 10.0833C9.42815 10.0272 9.44712 9.97205 9.48418 9.92979Z" fill="white"/>
<path d="M14.5199 9.93429C14.597 10.0286 14.5885 10.1743 14.5028 10.2557L12.7028 12L12.4285 11.6572L14.2285 9.91286C14.3142 9.82715 14.4428 9.84001 14.5199 9.93429ZM14.5199 14.0657C14.5565 14.0192 14.5749 13.9609 14.5717 13.9018C14.5686 13.8427 14.5441 13.7867 14.5028 13.7443L12.7028 12L12.4285 12.3429L14.2285 14.0872C14.3142 14.1729 14.4428 14.16 14.5199 14.0657Z" fill="#27E9AF"/>
<path d="M15.8572 10.0712C15.8572 9.95122 15.9515 9.85693 16.0715 9.85693H19.2857C20.1729 9.85693 20.5715 10.2555 20.5715 11.1426C20.5715 11.5369 20.3786 11.8155 20.1215 11.9912C20.3786 12.1626 20.5715 12.4498 20.5715 12.8569C20.5715 13.6112 20.04 14.1426 19.2857 14.1426H16.0715C16.0146 14.1426 15.9601 14.1201 15.9199 14.0799C15.8798 14.0397 15.8572 13.9852 15.8572 13.9284C15.8572 13.8715 15.8798 13.817 15.9199 13.7768C15.9601 13.7367 16.0146 13.7141 16.0715 13.7141H19.2857C19.8043 13.7141 20.1429 13.3755 20.1429 12.8569C20.1429 12.4712 19.8429 12.2484 19.4872 12.2141H16.0715C16.0146 12.2141 15.9601 12.1915 15.9199 12.1513C15.8798 12.1111 15.8572 12.0566 15.8572 11.9998C15.8572 11.943 15.8798 11.8885 15.9199 11.8483C15.9601 11.8081 16.0146 11.7855 16.0715 11.7855H19.2772C19.3415 11.7812 19.4057 11.7769 19.4786 11.7855C19.8215 11.7426 20.1429 11.5155 20.1429 11.1426C20.1429 10.4826 19.9457 10.2855 19.2857 10.2855H16.0715C16.0146 10.2855 15.9601 10.2629 15.9199 10.2227C15.8798 10.1826 15.8572 10.1281 15.8572 10.0712Z" fill="white"/>
</g>
<defs>
<linearGradient id="paint0_linear_31_15664" x1="4.46571" y1="4.16143" x2="29.2071" y2="32.58" gradientUnits="userSpaceOnUse">
<stop stop-color="#1A1E21"/>
<stop offset="1" stop-color="#06060A"/>
</linearGradient>
<clipPath id="clip0_31_15664">
<rect width="24" height="24" fill="white"/>
</clipPath>
</defs>
</svg>

<svg xmlns="http://www.w3.org/2000/svg" width="24" height="24" fill="none" viewBox="0 0 24 24"><g clip-path="url(#a)"><path fill="url(#b)" d="M0 0h24v24H0z"/><path fill="#fff" d="M4.714 10.286h2.143a.857.857 0 0 1 .857.857v.428a.214.214 0 1 0 .429 0v-.428a1.286 1.286 0 0 0-1.286-1.286H4.714a1.286 1.286 0 0 0-1.286 1.286v.428a.214.214 0 1 0 .429 0v-.428a.86.86 0 0 1 .857-.857m-.857 2.142a.214.214 0 1 0-.429 0v.429a1.286 1.286 0 0 0 1.286 1.286h2.143a1.286 1.286 0 0 0 1.286-1.286v-.429a.214.214 0 1 0-.429 0v.429a.857.857 0 0 1-.857.857H4.714a.857.857 0 0 1-.857-.857zM9.484 9.93a.214.214 0 0 1 .3-.017l2.143 1.928a.215.215 0 0 1 0 .317l-2.143 1.929a.215.215 0 0 1-.283-.317L11.464 12l-1.963-1.77a.214.214 0 0 1-.017-.3"/><path fill="#27E9AF" d="M14.52 9.934a.24.24 0 0 1-.017.322L12.703 12l-.274-.343 1.8-1.744c.085-.086.214-.073.29.021m0 4.132a.244.244 0 0 0-.017-.322L12.703 12l-.274.343 1.8 1.744c.085.086.214.073.29-.021"/><path fill="#fff" d="M15.857 10.071c0-.12.095-.214.215-.214h3.214c.887 0 1.285.399 1.285 1.286a.99.99 0 0 1-.45.848c.258.172.45.459.45.866 0 .754-.531 1.286-1.285 1.286H16.07a.214.214 0 1 1 0-.429h3.215c.518 0 .857-.338.857-.857 0-.386-.3-.609-.656-.643h-3.415a.214.214 0 1 1 0-.428h3.205c.064-.005.129-.01.202 0 .343-.043.664-.27.664-.643 0-.66-.197-.857-.857-.857H16.07a.214.214 0 0 1-.214-.215"/></g><defs><linearGradient id="b" x1="4.466" x2="29.207" y1="4.161" y2="32.58" gradientUnits="userSpaceOnUse"><stop stop-color="#1A1E21"/><stop offset="1" stop-color="#06060A"/></linearGradient><clipPath id="a"><path fill="#fff" d="M0 0h24v24H0z"/></clipPath></defs></svg>
